data/styles/clear/style-clear/symbols/beer-m.svg

<svg height="24" viewBox="0 0 24 24" width="24"><g fill="none" fill-rule="evenodd"><circle cx="12" cy="12" fill="#fff" opacity=".6" r="12"/><circle cx="12" cy="12" fill="#bb9342" r="11"/><path d="m11.1 6c-.8165284 0-1.44607278.41555706-1.93125.95625-.3029913-.1949904-.63985992-.35625-1.06875-.35625-1.1542857 0-2.1.9457143-2.1 2.1 0 .1165836.04151604.35451372.13125.54375-.07221642.09892332-.13125.20886744-.13125.35625v6c0 1.32 1.08 2.4 2.4 2.4h5.4c1.32 0 2.4-1.08 2.4-2.4v-.69375c1.034736-.2667222 2.6571429-1.1880006 2.6571429-2.30625v-1.8c0-.3133333-.1112814-.6362817-.3375-.8625s-.5491668-.3375-.8625-.3375h-1.4571429c0-.14738256-.0590334-.25732668-.13125-.35625.0897336-.18923628.13125-.4271664.13125-.54375 0-1.1542857-.945714-2.1-2.1-2.1-.4288902 0-.7657584.1612596-1.06875.35625-.4851774-.54069294-1.1147214-.95625-1.93125-.95625zm0 1.2c.6114288 0 1.0603104.3282774 1.33125.825.0912667.16708037.2564049.28093782.445019.30682602.188614.0258882.3783224-.03926481.511231-.17557602.2434314-.24343146.4324998-.35625.7125-.35625.525714 0 .9.3742857.9.9 0 .06-.0030276.04918074 0 .0375-.0514212.07892831-.0835376.16885426-.09375.2625h-1.10625c-.66 0-1.2.54-1.2 1.2 0 .6.6 1.14.6 1.8s-.54 1.2-1.2 1.2-1.2-.54-1.2-1.2.6-1.2.6-1.8c0-.66-.54-1.2-1.2-1.2h-2.90625c-.0102124-.09364574-.04232881-.18357169-.09375-.2625.00302784.01168074 0 .0225 0-.0375 0-.5257143.3742857-.9.9-.9.28000002 0 .46906854.11281854.7125.35625.13290863.13631121.32261699.20146422.51123102.17557602s.35375233-.13974565.44501898-.30682602c.2709396-.4967226.7198214-.825 1.33125-.825zm-3.9 3h1.2v5.4c0 .66.54 1.2 1.2 1.2h-1.2c-.66 0-1.2-.54-1.2-1.2zm9 .6h1.4571429v1.8c0 .4860648-1.0881837.8566566-1.4571429 1.05z" fill="#fff" fill-rule="nonzero"/></g></svg>

<svg width="24" height="24" viewBox="0 0 24 24">
  <g fill="none" fill-rule="evenodd">
    <circle cx="12" cy="12" r="12" fill="#FFF" opacity=".6"/>
    <circle cx="12" cy="12" r="11" fill="#BB9342"/>
    <path fill="#FFF" fill-rule="nonzero" d="M11.1,6 C10.2834716,6 9.65392722,6.41555706 9.16875,6.95625 C8.8657587,6.7612596 8.52889008,6.6 8.1,6.6 C6.9457143,6.6 6,7.5457143 6,8.7 C6,8.8165836 6.04151604,9.05451372 6.13125,9.24375 C6.05903358,9.34267332 6,9.45261744 6,9.6 L6,15.6 C6,16.92 7.08,18 8.4,18 L13.8,18 C15.12,18 16.2,16.92 16.2,15.6 L16.2,14.90625 C17.234736,14.6395278 18.8571429,13.7182494 18.8571429,12.6 L18.8571429,10.8 C18.8571429,10.4866667 18.7458615,10.1637183 18.5196429,9.9375 C18.2934243,9.7112817 17.9704761,9.6 17.6571429,9.6 L16.2,9.6 C16.2,9.45261744 16.1409666,9.34267332 16.06875,9.24375 C16.1584836,9.05451372 16.2,8.8165836 16.2,8.7 C16.2,7.5457143 15.254286,6.6 14.1,6.6 C13.6711098,6.6 13.3342416,6.7612596 13.03125,6.95625 C12.5460726,6.41555706 11.9165286,6 11.1,6 Z M11.1,7.2 C11.7114288,7.2 12.1603104,7.5282774 12.43125,8.025 C12.5225167,8.19208037 12.6876549,8.30593782 12.876269,8.33182602 C13.064883,8.35771422 13.2545914,8.29256121 13.3875,8.15625 C13.6309314,7.91281854 13.8199998,7.8 14.1,7.8 C14.625714,7.8 15,8.1742857 15,8.7 C15,8.76 14.9969724,8.74918074 15,8.7375 C14.9485788,8.81642831 14.9164624,8.90635426 14.90625,9 L13.8,9 C13.14,9 12.6,9.54 12.6,10.2 C12.6,10.8 13.2,11.34 13.2,12 C13.2,12.66 12.66,13.2 12,13.2 C11.34,13.2 10.8,12.66 10.8,12 C10.8,11.34 11.4,10.8 11.4,10.2 C11.4,9.54 10.86,9 10.2,9 L7.29375,9 C7.2835376,8.90635426 7.25142119,8.81642831 7.2,8.7375 C7.20302784,8.74918074 7.2,8.76 7.2,8.7 C7.2,8.1742857 7.5742857,7.8 8.1,7.8 C8.38000002,7.8 8.56906854,7.91281854 8.8125,8.15625 C8.94540863,8.29256121 9.13511699,8.35771422 9.32373102,8.33182602 C9.51234505,8.30593782 9.67748335,8.19208037 9.76875,8.025 C10.0396896,7.5282774 10.4885714,7.2 11.1,7.2 Z M7.2,10.2 L8.4,10.2 L8.4,15.6 C8.4,16.26 8.94,16.8 9.6,16.8 L8.4,16.8 C7.74,16.8 7.2,16.26 7.2,15.6 L7.2,10.2 Z M16.2,10.8 L17.6571429,10.8 L17.6571429,12.6 C17.6571429,13.0860648 16.5689592,13.4566566 16.2,13.65 L16.2,10.8 Z"/>
  </g>
</svg>
